public/img/location.svg

<svg width="651" height="644" fill="none" xmlns="http://www.w3.org/2000/svg"><path opacity=".4" d="M630.432 518.59 492.74 605.421a56.957 56.957 0 0 1-47.809 6.048L294 562.953a56.953 56.953 0 0 0-48.072 6.215l-110.5 70.537a25.806 25.806 0 0 1-38.6-14.736l-95.37-334.34a25.81 25.81 0 0 1 11.03-28.893l139.16-87.949a62.352 62.352 0 0 1 52.4-6.655L350.163 214.1a62.368 62.368 0 0 0 52.566-6.758l104.638-66.589a25.82 25.82 0 0 1 11.232-3.901 25.809 25.809 0 0 1 27.439 18.594l95.355 334.294a25.803 25.803 0 0 1-10.961 28.85Z" fill="#CCCDCF"/><path d="M635.808 483.107 518.23 557.929a62.364 62.364 0 0 1-52.566 6.758l-146.125-46.968a62.373 62.373 0 0 0-52.4 6.654L140.8 604.222a25.807 25.807 0 0 1-32.806-4.377 25.799 25.799 0 0 1-5.794-10.359L6.831 255.146a25.804 25.804 0 0 1 11.029-28.893L157.013 138.3a62.375 62.375 0 0 1 52.4-6.654l146.124 46.969a62.362 62.362 0 0 0 52.566-6.759l104.638-66.588a25.81 25.81 0 0 1 38.671 14.693l95.355 334.292a25.809 25.809 0 0 1-10.959 28.854Z" fill="#fff"/><path d="M305.513 479.926 283.65 418.24l-103.319 35.371-32.307-93.606-84.151 16.748 59 206.834a4.336 4.336 0 0 0 4.184 3.137 4.113 4.113 0 0 0 2.251-.681l120.114-75.913c-.522-.611 56.091-30.204 56.091-30.204Z" fill="#EAF4F7"/><path d="M635.808 483.107 518.23 557.929a62.364 62.364 0 0 1-52.566 6.758l-146.125-46.968a62.373 62.373 0 0 0-52.4 6.654L140.8 604.222a25.807 25.807 0 0 1-32.806-4.377 25.799 25.799 0 0 1-5.794-10.359L6.831 255.146a25.804 25.804 0 0 1 11.029-28.893L157.013 138.3a62.375 62.375 0 0 1 52.4-6.654l146.124 46.969a62.362 62.362 0 0 0 52.566-6.759l104.638-66.588a25.81 25.81 0 0 1 38.671 14.693l95.355 334.292a25.809 25.809 0 0 1-10.959 28.854Z" stroke="#363A5A" stroke-width="6" stroke-miterlimit="10"/><path d="M197.066 441.575s1.792-.467 4.812-1.349" stroke="#363A5A" stroke-width="4" stroke-linecap="round" stroke-linejoin="round"/><path d="M216.416 435.572c21.234-7.387 52.394-20.943 52.768-36.975.5-21.3-102.732-127.866-47.233-134.308 185.288-21.506 102.267 132.6 186.772 129.156 35.7-1.455-30.321-50.539 71.682-86.018 15.121-5.26 7.609-43.716 2.536-63.822" stroke="#363A5A" stroke-width="4" stroke-linecap="round" stroke-linejoin="round" stroke-dasharray="10.18 15.26"/><path d="M480.979 236.226c-.844-3.017-1.4-4.8-1.4-4.8" stroke="#363A5A" stroke-width="4" stroke-linecap="round" stroke-linejoin="round"/><path opacity=".22" d="M190.612 492.37c26.616 0 48.192-21.576 48.192-48.192 0-26.615-21.576-48.192-48.192-48.192s-48.192 21.577-48.192 48.192c0 26.616 21.576 48.192 48.192 48.192Z" fill="#3DC0CB"/><path d="M190.612 472.124c15.434 0 27.946-12.511 27.946-27.946 0-15.434-12.512-27.946-27.946-27.946-15.434 0-27.946 12.512-27.946 27.946 0 15.435 12.512 27.946 27.946 27.946Z" fill="#3DC0CB"/><path d="M190.612 416.232a27.916 27.916 0 0 0-12.354 2.876 27.923 27.923 0 0 0-9.804 8.048 27.94 27.94 0 0 1 43.614 21.702 27.937 27.937 0 0 1-5.754 18.437 27.947 27.947 0 0 0 11.009-31.329 27.945 27.945 0 0 0-26.709-19.734h-.002Z" fill="#64C7CF"/><path d="M190.612 472.124c15.434 0 27.946-12.511 27.946-27.946 0-15.434-12.512-27.946-27.946-27.946-15.434 0-27.946 12.512-27.946 27.946 0 15.435 12.512 27.946 27.946 27.946Z" stroke="#363A5A" stroke-width="6" stroke-miterlimit="10"/><path d="m203.347 194.84 80.153 15.193-18.407-32.352-66.339-23.145a30.949 30.949 0 0 0-23.645 1.352L29.342 244.431a4.326 4.326 0 0 0-1.839 4.816l23.508 82.412 64.089-15.847-11.77-47.212 100.017-73.76Z" fill="#87D5F7" stroke="#259AD6" stroke-width="4" stroke-linecap="round" stroke-linejoin="round"/><path d="m330.37 398.929 45.739 11.516 22.113 50.681-49.273-8.077-18.579-54.12Z" fill="#FDDCBF" stroke="#ECB072" stroke-width="4" stroke-linecap="round" stroke-linejoin="round"/><path d="M480.426 247.11c-37.157 0-67.278-10.776-67.278-24.069s30.121-24.07 67.278-24.07c37.157 0 67.277 10.777 67.277 24.07 0 13.293-30.121 24.069-67.277 24.069Z" fill="#EAF4F7"/><path d="m501.538 383.486 83.927-36.534 33.155 101.009-135.902 77.232-24.91-70.3 53.14-29.891-9.41-41.516Z" fill="#FDDCBF" stroke="#ECB072" stroke-width="4" stroke-linecap="round" stroke-linejoin="round"/><path d="M579.481 105.681c0-57.8-46.914-104.344-103.761-101.642-50.9 2.42-94.292 45.782-94.292 98.124 0 75.717 99 134.1 99 134.1s99.053-58.383 99.053-130.582Z" fill="#EE4637"/><path d="M516.585 206.964a44.192 44.192 0 0 1-54.6-.188c-29.3-23.2-71.677-65.323-71.677-114.86a96.3 96.3 0 0 1 19.808-58.17c-17.573 17.746-28.689 41.93-28.689 68.417 0 75.717 99 134.1 99 134.1s40.374-23.8 69.571-59.8a282.937 282.937 0 0 1-33.413 30.501Z" fill="#CD3C27"/><path d="M475.72 4.039a97.975 97.975 0 0 0-49.9 16.723 96.748 96.748 0 0 1 37.234-9.485c56.847-2.7 103.762 43.841 103.762 101.642 0 56.61-60.894 104.724-87.192 122.863.515.314.8.484.8.484s99.055-58.386 99.055-130.585c.002-57.8-46.912-104.344-103.759-101.642Z" fill="#F07378"/><path d="M480.426 144.605a40.757 40.757 0 0 1-7.953-80.729 40.75 40.75 0 0 1 41.839 17.33 40.75 40.75 0 0 1-5.068 51.461 40.756 40.756 0 0 1-28.818 11.938Z" fill="#fff"/><path d="M480.426 144.605a40.757 40.757 0 0 1-7.953-80.729 40.75 40.75 0 0 1 41.839 17.33 40.75 40.75 0 0 1-5.068 51.461 40.756 40.756 0 0 1-28.818 11.938Z" stroke="#363A5A" stroke-width="6" stroke-miterlimit="10"/><path d="M579.481 105.681c0-57.8-46.914-104.344-103.761-101.642-50.9 2.42-94.292 45.782-94.292 98.124 0 75.717 99 134.1 99 134.1s99.053-58.383 99.053-130.582Z" stroke="#363A5A" stroke-width="6" stroke-linecap="round" stroke-linejoin="round"/></svg>

<svg width="651" height="644" viewBox="0 0 651 644" fill="none" xmlns="http://www.w3.org/2000/svg">
<path opacity="0.4" d="M630.432 518.59L492.74 605.421C485.698 609.862 477.767 612.705 469.507 613.75C461.247 614.795 452.858 614.016 444.931 611.469L294 562.953C286.024 560.389 277.58 559.617 269.27 560.691C260.961 561.765 252.991 564.66 245.928 569.168L135.428 639.705C132.038 641.847 128.195 643.169 124.205 643.567C120.215 643.965 116.187 643.428 112.44 641.997C108.694 640.567 105.332 638.284 102.622 635.328C99.912 632.372 97.929 628.825 96.828 624.969L1.45802 290.629C-0.0709773 285.268 0.17803 279.555 2.16603 274.347C4.15403 269.139 7.77604 264.714 12.488 261.736L151.648 173.787C159.363 168.911 168.055 165.787 177.109 164.638C186.163 163.488 195.359 164.339 204.048 167.132L350.163 214.1C358.884 216.903 368.115 217.75 377.2 216.582C386.285 215.414 395.001 212.259 402.729 207.342L507.367 140.753C510.757 138.596 514.603 137.261 518.599 136.852C522.596 136.444 526.632 136.975 530.388 138.401C534.143 139.828 537.513 142.112 540.23 145.071C542.947 148.03 544.936 151.583 546.038 155.446L641.393 489.74C642.919 495.088 642.676 500.785 640.701 505.984C638.726 511.182 635.124 515.604 630.432 518.59Z" fill="#CCCDCF"/>
<path d="M635.808 483.107L518.23 557.929C510.502 562.847 501.785 566.002 492.7 567.17C483.615 568.338 474.384 567.49 465.664 564.687L319.539 517.719C310.85 514.927 301.654 514.075 292.599 515.225C283.545 516.375 274.854 519.498 267.139 524.373L140.8 604.222C137.41 606.364 133.567 607.687 129.577 608.085C125.586 608.483 121.558 607.945 117.812 606.515C114.065 605.085 110.704 602.801 107.994 599.845C105.284 596.889 103.3 593.343 102.2 589.486L6.83123 255.146C5.30123 249.785 5.54923 244.073 7.53823 238.865C9.52623 233.656 13.1472 229.232 17.8602 226.253L157.013 138.3C164.728 133.425 173.419 130.302 182.473 129.152C191.528 128.002 200.724 128.854 209.413 131.646L355.537 178.615C364.257 181.418 373.488 182.266 382.573 181.098C391.659 179.93 400.375 176.774 408.103 171.856L512.741 105.268C516.13 103.112 519.976 101.776 523.972 101.368C527.969 100.96 532.006 101.49 535.761 102.917C539.516 104.344 542.887 106.628 545.604 109.587C548.321 112.546 550.31 116.098 551.412 119.961L646.767 454.253C648.293 459.602 648.051 465.3 646.076 470.499C644.101 475.699 640.5 480.121 635.808 483.107Z" fill="white"/>
<path d="M305.513 479.926L283.65 418.24L180.331 453.611L148.024 360.005L63.873 376.753L122.873 583.587C123.134 584.494 123.684 585.291 124.439 585.857C125.194 586.423 126.113 586.728 127.057 586.724C127.858 586.721 128.64 586.484 129.308 586.043L249.422 510.13C248.9 509.519 305.513 479.926 305.513 479.926Z" fill="#EAF4F7"/>
<path d="M635.808 483.107L518.23 557.929C510.502 562.847 501.785 566.002 492.7 567.17C483.615 568.338 474.384 567.49 465.664 564.687L319.539 517.719C310.85 514.927 301.654 514.075 292.599 515.225C283.545 516.375 274.854 519.498 267.139 524.373L140.8 604.222C137.41 606.364 133.567 607.687 129.577 608.085C125.586 608.483 121.558 607.945 117.812 606.515C114.065 605.085 110.704 602.801 107.994 599.845C105.284 596.889 103.3 593.343 102.2 589.486L6.83123 255.146C5.30123 249.785 5.54923 244.073 7.53823 238.865C9.52623 233.656 13.1472 229.232 17.8602 226.253L157.013 138.3C164.728 133.425 173.419 130.302 182.473 129.152C191.528 128.002 200.724 128.854 209.413 131.646L355.537 178.615C364.257 181.418 373.488 182.266 382.573 181.098C391.659 179.93 400.375 176.774 408.103 171.856L512.741 105.268C516.13 103.112 519.976 101.776 523.972 101.368C527.969 100.96 532.006 101.49 535.761 102.917C539.516 104.344 542.887 106.628 545.604 109.587C548.321 112.546 550.31 116.098 551.412 119.961L646.767 454.253C648.293 459.602 648.051 465.3 646.076 470.499C644.101 475.699 640.5 480.121 635.808 483.107Z" stroke="#363A5A" stroke-width="6" stroke-miterlimit="10"/>
<path d="M197.066 441.575C197.066 441.575 198.858 441.108 201.878 440.226" stroke="#363A5A" stroke-width="4" stroke-linecap="round" stroke-linejoin="round"/>
<path d="M216.416 435.572C237.65 428.185 268.81 414.629 269.184 398.597C269.684 377.297 166.452 270.731 221.951 264.289C407.239 242.783 324.218 396.889 408.723 393.445C444.423 391.99 378.402 342.906 480.405 307.427C495.526 302.167 488.014 263.711 482.941 243.605" stroke="#363A5A" stroke-width="4" stroke-linecap="round" stroke-linejoin="round" stroke-dasharray="10.18 15.26"/>
<path d="M480.979 236.226C480.135 233.209 479.579 231.426 479.579 231.426" stroke="#363A5A" stroke-width="4" stroke-linecap="round" stroke-linejoin="round"/>
<path opacity="0.22" d="M190.612 492.37C217.228 492.37 238.804 470.794 238.804 444.178C238.804 417.563 217.228 395.986 190.612 395.986C163.996 395.986 142.42 417.563 142.42 444.178C142.42 470.794 163.996 492.37 190.612 492.37Z" fill="#3DC0CB"/>
<path d="M190.612 472.124C206.046 472.124 218.558 459.613 218.558 444.178C218.558 428.744 206.046 416.232 190.612 416.232C175.178 416.232 162.666 428.744 162.666 444.178C162.666 459.613 175.178 472.124 190.612 472.124Z" fill="#3DC0CB"/>
<path d="M190.612 416.232C186.328 416.23 182.101 417.214 178.258 419.108C174.416 421.003 171.061 423.757 168.454 427.156C173.948 423.422 180.593 421.767 187.196 422.489C193.8 423.21 199.93 426.261 204.488 431.093C209.046 435.925 211.733 442.224 212.068 448.858C212.403 455.492 210.363 462.029 206.314 467.295C211.258 463.937 214.995 459.082 216.977 453.443C218.958 447.804 219.08 441.678 217.323 435.966C215.567 430.253 212.025 425.253 207.217 421.702C202.41 418.15 196.591 416.233 190.614 416.232H190.612Z" fill="#64C7CF"/>
<path d="M190.612 472.124C206.046 472.124 218.558 459.613 218.558 444.178C218.558 428.744 206.046 416.232 190.612 416.232C175.178 416.232 162.666 428.744 162.666 444.178C162.666 459.613 175.178 472.124 190.612 472.124Z" stroke="#363A5A" stroke-width="6" stroke-miterlimit="10"/>
<path d="M203.347 194.84L283.5 210.033L265.093 177.681L198.754 154.536C194.917 153.198 190.854 152.628 186.797 152.86C182.74 153.092 178.768 154.121 175.109 155.888L29.342 244.431C28.559 244.93 27.958 245.668 27.626 246.535C27.295 247.402 27.252 248.353 27.503 249.247L51.011 331.659L115.1 315.812L103.33 268.6L203.347 194.84Z" fill="#87D5F7" stroke="#259AD6" stroke-width="4" stroke-linecap="round" stroke-linejoin="round"/>
<path d="M330.37 398.929L376.109 410.445L398.222 461.126L348.949 453.049L330.37 398.929Z" fill="#FDDCBF" stroke="#ECB072" stroke-width="4" stroke-linecap="round" stroke-linejoin="round"/>
<path d="M480.426 247.11C443.269 247.11 413.148 236.334 413.148 223.041C413.148 209.748 443.269 198.971 480.426 198.971C517.583 198.971 547.703 209.748 547.703 223.041C547.703 236.334 517.582 247.11 480.426 247.11Z" fill="#EAF4F7"/>
<path d="M501.538 383.486L585.465 346.952L618.62 447.961L482.718 525.193L457.808 454.893L510.948 425.002L501.538 383.486Z" fill="#FDDCBF" stroke="#ECB072" stroke-width="4" stroke-linecap="round" stroke-linejoin="round"/>
<path d="M579.481 105.681C579.481 47.881 532.567 1.33699 475.72 4.03899C424.82 6.45899 381.428 49.821 381.428 102.163C381.428 177.88 480.428 236.263 480.428 236.263C480.428 236.263 579.481 177.88 579.481 105.681Z" fill="#EE4637"/>
<path d="M516.585 206.964C508.778 213.054 499.153 216.346 489.252 216.312C479.351 216.278 469.749 212.92 461.985 206.776C432.685 183.576 390.308 141.453 390.308 91.916C390.381 70.883 397.338 50.453 410.116 33.746C392.543 51.492 381.427 75.676 381.427 102.163C381.427 177.88 480.427 236.263 480.427 236.263C480.427 236.263 520.801 212.463 549.998 176.463C539.692 187.506 528.519 197.705 516.585 206.964Z" fill="#CD3C27"/>
<path d="M475.72 4.03899C457.873 4.95799 440.617 10.741 425.82 20.762C437.473 15.143 450.134 11.917 463.054 11.277C519.901 8.57698 566.816 55.118 566.816 112.919C566.816 169.529 505.922 217.643 479.624 235.782C480.139 236.096 480.424 236.266 480.424 236.266C480.424 236.266 579.479 177.88 579.479 105.681C579.481 47.881 532.567 1.33699 475.72 4.03899Z" fill="#F07378"/>
<path d="M480.426 144.605C472.365 144.605 464.485 142.215 457.783 137.737C451.08 133.258 445.857 126.893 442.772 119.446C439.687 111.999 438.879 103.804 440.452 95.898C442.024 87.992 445.906 80.73 451.606 75.03C457.306 69.33 464.568 65.449 472.473 63.876C480.379 62.303 488.574 63.11 496.021 66.195C503.469 69.28 509.834 74.504 514.312 81.206C518.791 87.908 521.181 95.788 521.181 103.849C521.181 114.658 516.887 125.024 509.244 132.667C501.601 140.31 491.235 144.605 480.426 144.605Z" fill="white"/>
<path d="M480.426 144.605C472.365 144.605 464.485 142.215 457.783 137.737C451.08 133.258 445.857 126.893 442.772 119.446C439.687 111.999 438.879 103.804 440.452 95.898C442.024 87.992 445.906 80.73 451.606 75.03C457.306 69.33 464.568 65.449 472.473 63.876C480.379 62.303 488.574 63.11 496.021 66.195C503.469 69.28 509.834 74.504 514.312 81.206C518.791 87.908 521.181 95.788 521.181 103.849C521.181 114.658 516.887 125.024 509.244 132.667C501.601 140.31 491.235 144.605 480.426 144.605Z" stroke="#363A5A" stroke-width="6" stroke-miterlimit="10"/>
<path d="M579.481 105.681C579.481 47.881 532.567 1.33699 475.72 4.03899C424.82 6.45899 381.428 49.821 381.428 102.163C381.428 177.88 480.428 236.263 480.428 236.263C480.428 236.263 579.481 177.88 579.481 105.681Z" stroke="#363A5A" stroke-width="6" stroke-linecap="round" stroke-linejoin="round"/>
</svg>
